client/resources/iconsets/breeze/src/svg/large/icon_large_calendar_view_workweek.svg

<svg xmlns="http://www.w3.org/2000/svg" width="32" height="32" viewBox="0 0 32 32">
 <path style="fill:#6d6d70"
       d="M 7.5 4 C 7.223 4 7 4.223 7 4.5 L 7 5 L 5 5 L 4 5 C 3.4459997 5 3 5.446 3 6 L 3 28 C 3 28.554 3.4459997 29 4 29 L 28 29 C 28.554 29 29 28.554 29 28 L 29 6 C 29 5.446 28.553999 5 28 5 L 27 5 L 25 5 L 25 4.5 C 25 4.223 24.777 4 24.5 4 L 21.5 4 C 21.223 4 21 4.223 21 4.5 L 21 5 L 11 5 L 11 4.5 C 11 4.223 10.777 4 10.5 4 L 7.5 4 z M 5 8 L 27 8 L 27 26.730469 L 5 26.730469 L 5 8 z M 11.859375 11 L 11.296875 17.535156 L 12.556641 18.113281 C 12.829585 18.043107 13.184382 17.980355 13.621094 17.921875 C 14.057804 17.857548 14.456708 17.824219 14.818359 17.824219 C 16.817677 17.824219 17.816406 18.471274 17.816406 19.763672 C 17.816406 21.120397 16.851003 21.798828 14.919922 21.798828 C 14.278503 21.798828 13.599292 21.722359 12.882812 21.570312 C 12.166334 21.412418 11.539065 21.210458 11 20.964844 L 11 23.306641 C 12.023541 23.768629 13.368242 24 15.033203 24 C 16.950638 24 18.424713 23.613727 19.455078 22.841797 C 20.485443 22.069867 21 20.967905 21 19.535156 C 21 18.32463 20.570712 17.371688 19.710938 16.675781 C 18.857986 15.979875 17.708325 15.630859 16.261719 15.630859 C 15.647595 15.630859 15.131084 15.672035 14.714844 15.753906 L 14.357422 15.816406 L 14.632812 13.298828 L 19.976562 13.298828 L 19.976562 11 L 11.859375 11 z "
       />
</svg>

<svg xmlns="http://www.w3.org/2000/svg" width="32" height="32"><path d="M7.5 4a.5.5 0 0 0-.5.5V5H5 4a1 1 0 0 0-1 1v22a1 1 0 0 0 1 1h24a1 1 0 0 0 1-1V6a1 1 0 0 0-1-1h-1-2v-.5a.5.5 0 0 0-.5-.5h-3a.5.5 0 0 0-.5.5V5H11v-.5a.5.5 0 0 0-.5-.5h-3zM5 8h22v18.73H5V8zm6.859 3l-.562 6.535 1.26.578a9.52 9.52 0 0 1 1.064-.191 8.28 8.28 0 0 1 1.197-.098c1.999 0 2.998.647 2.998 1.939 0 1.357-.965 2.035-2.896 2.035a9.83 9.83 0 0 1-2.037-.229c-.716-.158-1.344-.36-1.883-.605v2.342c1.024.462 2.368.693 4.033.693 1.917 0 3.392-.386 4.422-1.158S21 20.968 21 19.535c0-1.211-.429-2.163-1.289-2.859-.853-.696-2.003-1.045-3.449-1.045-.614 0-1.131.041-1.547.123l-.357.063.275-2.518h5.344V11h-8.117z" fill="#6d6d70"/></svg>
